X:1
T:Title
%%score { ( 1 3 ) | ( 2 4 ) }
L:1/8
Q:1/4=116
M:4/4
K:Ab
V:1 treble nm="Grand Piano"
V:3 treble 
V:2 bass 
V:4 bass 
V:1
 [A,CE]4 [A,CE]2 [A,CE]2 | [A,DF]4 [DFB]4 | [B,EG]8 | [A,EA]4 [A,FA]2 [B,FA]2 | [CEA]4 [DEG]4 | %5
w: from~E.~L.~White * *|||||
 [CEA]8 | [CFA]4 [CFA]2 [CFA]2 | [CGB]4 [CFA]4 | [FG]4 [=EG]4 | [A,F]8 | [B,DF]4 [B,DF]2 [A,DF]2 | %11
w: ||||||
 [G,DE]4 E2- [DE]2 | [A,CE]8 |] %13
w: ||
V:2
 A,,4 B,,2 A,,2 | D,4 B,,4 | E,8 | C,4 D,2 D,2 | E,4 E,4 | A,,8 | F,4 F,2 F,2 | =E,4 F,4 | %8
 C,4 z2 B,2 | D,8 | B,,4 B,,2 B,,2 | E,4 z2 B,2 | A,,8 |] %13
V:3
 x8 | x8 | x8 | x8 | x8 | x8 | x8 | x8 | C6 z2 | x8 | x8 | z4 [A,C]2 z2 | x8 |] %13
V:4
 x8 | x8 | x8 | x8 | x8 | x8 | x8 | x8 | z4 C,4 | x8 | x8 | z4 E,4 | x8 |] %13

